X:1
T:I’m Seeking a Home
T:I’m Seeking a Home
T:Richard Marion Burt
T:Richard Marion Burt, 1900
T:Public Domain Courtesy of the Cyber Hymnal™
T:Public Domain Courtesy of the Cyber Hymnal™
T:Public Domain Courtesy of the Cyber Hymnal™
C:Richard Marion Burt
Z:Public Domain
Z:Courtesy of the Cyber Hymnal™
%%score ( 1 2 ) ( 3 4 )
L:1/8
Q:1/4=90
M:12/8
K:Ab
V:1 treble 
V:2 treble 
V:3 bass 
V:4 bass 
V:1
 [EA][Ac][A=B] [Ac] | A3- A3- [EA]2 ([CA]/[DB]/) [Ec][=D=B][Ec] | %2
w: 1.~I’m seek- ing a|home * in~the man- * sions a- bove,|
w: 2.~I’m seek- ing a|home * thro’ tri- * als se- vere;|
w: 3.~I’m seek- ing a|home * in~the man- * sions a- bove,|
w: 4.~I’m seek- ing a|home * where loved * ones have gone,|
 e3- e3- [_Ae]2 [Ac] [Bd][=Ac][Bd] | B3- B3- [GB]2 ([GB]/[Gc]/) [GB][^F=A][GB] | %4
w: * * Where I can a- bide|* * with~the Sav- * ior I love,|
w: * * But grace will sus- tain|* * when tri- * als ap- pear;|
w: * * Con- duct- ed a- long|* * by~the heav- * en- ly Dove.|
w: * * Who fought the good fight|* * and~the vic- * to- ry won;|
 c3- c3- [Ac]2 [EA] [Ac][A=B][Ac] | A3- A3- [EA]2 ([CA]/[DB]/) [Ec][=D=B][Ec] | %6
w: * * And sing the sweet song|* * all~the glor- * i- fied sing,|
w: * * I’ll la- bor and pray|* * and da- * ily press on,|
w: * * What rap- ture is mine|* * when~I think * of that bliss!|
w: * * And when I’m re- leased|* * from sor- * row and pain,|
 e3- e3- [_Ae]2 [Ac] [Bd][=Ac][Bd] | B3- B3- [GB]2 [EA]/[EA]/ [EG][E^F][EG] | A3- A3- [EA]2 || %9
w: * * While cast- ing their crowns|* * at the feet of their king.||
w: * * E’er trust- ing the Lord,|* * He’ll not leave me a- lone.|* * By|
w: * * What com- fort I find|* * in a pi- lot like this!||
w: * * All glo- ry to God!|* * I shall see them a- gain!||
"^Refrain" z4 | z2 [EG] [EG][EG][EG] [EG]2 z4 | z2 [EA] [EA][EA][EA] [EA]2 z4 | %12
w: |||
w: |faith I can see my|Sav- ior’s sweet smile, And|
w: |||
w: |||
 z2 [EG] [EG][EG][EG] [EG]2 z4 | z2 [EA] [EA][EA][EA] [EA]2 z4 | z2 [FA] [FA][FA][FA] [FA]2 z4 | %15
w: |||
w: hear His sweet voice, “Come|hi- gher, My child”; So|faith- ful and true ’mid|
w: |||
w: |||
 z2 [FA] [FA][FA][FA] [FA]2 z4 | z2 [EG]/[EG]/ [EG][EG][EG] [EG]2 [EG] [EG][EG][EG] | %17
w: ||
w: cares and dis- tress, “En-|ter in- to My joy! par- take of My rest.”|
w: ||
w: ||
 A3- A3- [EA]2 |] %18
w: |
w: |
w: |
w: |
V:2
 x4 | E2 EEEE x6 | =A2 A/A/AAA x6 | G2 GGGG x6 | A2 A/A/AAA x6 | E2 EEEE x6 | =A2 A/A/AAA x6 | %7
 G2 GGGG x6 | E2 E/E/FFF x2 || x4 | x12 | x12 | x12 | x12 | x12 | x12 | x12 | E2 EFFF x2 |] %18
V:3
 [A,C][A,E][A,=D] [A,E] | %1
w: ~ ~ ~ ~|
 ([A,C]2 [A,C][A,C][E,C][C,C] [A,,C]2) [A,,A,]/[A,,A,]/ [A,,A,][A,,A,][A,,A,] | %2
w: ~ * * * * * ~ ~ ~ ~ ~|
 ([A,,C]2 [A,,C]/[A,,C]/[A,,C][C,C][E,C] [A,C]2) [A,E] [E,E][E,E][E,E] | %3
w: ~ * * * * * * ~ ~ ~ ~|
 ([E,E]2 [E,E][E,E][G,E][B,E] [E,E]2) [E,E]/[E,E]/ [E,E][E,E][E,E] | %4
w: ~ * * * * * ~ ~ ~ ~ ~|
 ([A,E]2 [A,E]/[A,E]/[A,E][A,E][A,E] [A,E]2) [A,C] [A,E][A,=D][A,E] | %5
w: ~ * * * * * * ~ ~ ~ ~|
 [A,C]2 [A,C] [A,C][E,C][C,C] [A,,C]2 [A,,A,]/[A,,A,]/ [A,,A,][A,,A,][A,,A,] | %6
w: ~ ~ ~ ~ ~ ~ ~ ~ ~ ~ ~|
 ([A,,C]2 [A,,C]/[A,,C]/[A,,C][C,C][E,C] [A,C]2) [A,E] [E,E][E,E][E,E] | %7
w: ~ * * * * * * ~ ~ ~ ~|
 ([E,E]2 [E,E][E,E][G,E][B,E] [E,E]2) [E,C]/[E,C]/ [E,B,][E,=A,][E,B,] | (C2 C/C/CDD [A,,C]2) || %9
w: ~ * * * * * ~ ~ ~ ~ ~|~ * * * * * *|
 A,,C,B,, A,, | (z2 B,B,B,B, [E,B,]2) E, A,B,C | (z2 CCCC [A,C]2) E, F,G,A, | %12
w: * By faith I|* * * * * can see my Sav-|* * * * * * ior’s sweet smile,|
 (z2 DDDD [B,D]2) C DCB, | (z2 CCCC C2) A, A,G,F, | (z2 DDDD [D,D]2) B,, C,D,=E, | %15
w: * * * * * And hear His sweet|* * * * * * voice, “Come hi-|* * * * * * gher, My child”;|
 (z2 CCCC [F,C]2) A,/B,/ CB,A, | (z2 D/D/DDD [E,D]2) [E,D] [E,D][D,B,][B,,D] | (C2 CDDD [A,,C]2) |] %18
w: * * * * * So faith- ful and true,|* * * * * * ’mid care and dis-|tress, * * * * *|
V:4
 x4 | x12 | x12 | x12 | x12 | x12 | x12 | x12 | A,,3- A,,3- x2 || x4 | (E,3- E,3-) x6 | %11
 (A,3- A,3-) x6 | (B,3- B,3-) x6 | (C3 C3) C2 x4 | (D,3- D,3-) x6 | (F,3 F,3) x6 | (E,3- E,3-) x6 | %17
 A,,3- A,,3- x2 |] %18

